X: 43
T: CHRISTCHURCH BELLS
B: FIFTY OLD ENGLISH FOLK DANCE AIRS", Edgar H. Hunt ed., Schott & Co. Ltd. pub., London 1939
Z: 2004-2014 John Chambers <jc:trillian.mit.edu>
N: This tune can be treated as a round.
M: 2/2
L: 1/8
K: C
[V:1 nm="1"] [|\
c3c  c2c2 | c2c2 c2e2 | d2c2  B2A2  | G3G G2G2 |\
E2G2 C2G2 | c2F2 G2f2 | e2a2 (de)f2 | e3d c4 |]
[V:2 nm="2"] [|\
e3e  e2e2 | e2e2 e2g2 | f2(ef) d2c2 | d2G2 d2d2 |\
e2d2 e2d2 | e2d2 d2(cB) | c2A2 c2B2 | c3d e4 |]
[V:3 nm="3"] [|\
gggg g2gg | g2gg g2G2 | A3A B2c2 | B6 (AB) |\
c2B2 c2B2 | c2d2 B2(AG) | A2F2 G3G | C8 |]

%%sep 1 1 500
%%sep 1 1 500
